Adwaita++-Dark/actions/16/document-print.svg

<svg height="16" width="16" xmlns="http://www.w3.org/2000/svg">
  <g fill="#e6ddff">
    <path d="m2 4c-.5 0-1 .5-1 1v4c0 .5.5 1 1 1h1v-2h10v2h1c.5 0 1-.5 1-1v-4c0-.5-.5-1-1-1z"/>
    <path d="m4 1v2h8v-2z"/>
    <path d="m4 9v5h8v-5z"/>
  </g>
</svg>

<svg xmlns="http://www.w3.org/2000/svg" width="16" height="16" version="1.1">
 <path style="fill:#E6DDFF" d="M 2,4 C 1.5,4 1,4.5 1,5 V 9 C 1,9.5 1.5,10 2,10 H 3 V 8 H 13 V 10 H 14 C 14.5,10 15,9.5 15,9 V 5 C 15,4.5 14.5,4 14,4 Z"/>
 <path style="fill:#E6DDFF" d="M 4,1 V 3 H 12 V 1 Z"/>
 <path style="fill:#E6DDFF" d="M 4,9 V 14 H 12 V 9 Z"/>
</svg>
